X:1
T:Title
%%score { ( 1 3 ) | ( 2 4 ) }
L:1/8
M:6/8
K:Bb
V:1 treble nm="Grand Piano"
V:3 treble 
V:2 bass 
V:4 bass 
V:1
 z3 z2[Q:1/4=100] F | F2 B B2 c | d3 [DB]2 B | c2 B B2 G |[M:5/8] F-F- F3 |[M:1/8] F | %6
[M:3/4] G2 A B2 G | F3 [DB]2 d | c2 G A2 B |[M:5/8] c-c- c3 |[M:1/8] F |[M:3/4] F2 B B2 c | %12
 d3 [DB]2 B | c2 B B2 G |[M:5/8] F-F- F3 |[M:1/8] F |[M:3/4] G2 A B2 G | F3 [DB]2 d | c2 G A2 F | %19
[M:5/8] B-B- B3 |[M:1/8] F |[M:3/4] F6 | [Fd]2 [DB] [DF]2 F | G6 |[M:5/8] [Ge]2 [Gc] G2 | %25
[M:1/8] G |[M:3/4] F2 [DB] [FB]2 c | d3 B2 [Fd] | [=Ec]2 [EG] [_EA]2 [EF] | %29
[M:5/8] [DB]-[DB]- [DB]3 |] %30
V:2
 z6 | B,,2 F, [B,D]2 F, | B,,2 F, B,2 F, | E,2 G, [B,E]2 G, |[M:5/8] B,,2 F, B,2 |[M:1/8] F, | %6
[M:3/4] E,2 G, [B,E]2 G, | B,,2 F, B,2 F, | C,2 G, [B,C=E]2 G, |[M:5/8] F,2 z [F,A,]2 |[M:1/8] z | %11
[M:3/4] B,,2 F, [B,D]2 F, | B,,2 F, B,2 F, | E,2 G, [B,E]2 G, |[M:5/8] B,,2 F, B,2 |[M:1/8] F, | %16
[M:3/4] E,2 G, [B,E]2 G, | B,,2 F, B,2 F, | [G,B,C=E]2 z .[F,A,_E]3 |[M:5/8] [B,D]3 B,,2 | %20
[M:1/8] D |[M:3/4] D6 | [B,,B,]2 [B,,B,] [B,,B,]2 D | E6 |[M:5/8] [E,B,]2 [E,B,] [E,B,E]2 | %25
[M:1/8] [E,B,E] |[M:3/4] [D,B,]2 [B,,B,] [D,B,]2[K:treble] [F,A,F] | %27
 [B,F]3[K:bass] [B,D]2 [B,,B,] | [C,B,]2 [C,C] [F,C]2 [F,C] |[M:5/8] [B,,B,]-[B,,B,]- [B,,B,]3 |] %30
V:3
 x6 | x6 | x6 | x6 |[M:5/8] z z2 D2 |[M:1/8] x |[M:3/4] x6 | x6 | x6 |[M:5/8] z z2 E2 |[M:1/8] x | %11
[M:3/4] x6 | x6 | x6 |[M:5/8] z z2 D2 |[M:1/8] x |[M:3/4] x6 | x6 | x6 |[M:5/8] z z2 B,2 | %20
[M:1/8] x |[M:3/4] z2 B, B,2 [DB] | x6 | z2 B, B,2 c |[M:5/8] x5 |[M:1/8] x |[M:3/4] x6 | x6 | x6 | %29
[M:5/8] x5 |] %30
V:4
 x6 | x6 | x6 | x6 |[M:5/8] x5 |[M:1/8] x |[M:3/4] x6 | x6 | x6 |[M:5/8] x5 |[M:1/8] x | %11
[M:3/4] x6 | x6 | x6 |[M:5/8] x5 |[M:1/8] x |[M:3/4] x6 | x6 | x6 |[M:5/8] x5 |[M:1/8] x | %21
[M:3/4] z2 B,, B,,2 [B,,B,] | x6 | z2 E, E,2 [E,B,E] |[M:5/8] x5 |[M:1/8] x | %26
[M:3/4] x5[K:treble] x | x3[K:bass] x3 | x6 |[M:5/8] x5 |] %30

